src/assets/outline/Flag.svg

<svg width="24" height="24" viewBox="0 0 24 24"  xmlns="http://www.w3.org/2000/svg">
<path d="M5.1499 22.75C4.7399 22.75 4.3999 22.41 4.3999 22V2C4.3999 1.59 4.7399 1.25 5.1499 1.25C5.5599 1.25 5.8999 1.59 5.8999 2V22C5.8999 22.41 5.5599 22.75 5.1499 22.75Z" />
<path d="M16.3499 16.75H5.1499C4.7399 16.75 4.3999 16.41 4.3999 16C4.3999 15.59 4.7399 15.25 5.1499 15.25H16.3499C17.4399 15.25 17.9499 14.96 18.0499 14.71C18.1499 14.46 17.9999 13.9 17.2199 13.13L16.0199 11.93C15.5299 11.5 15.2299 10.85 15.1999 10.13C15.1699 9.37 15.4699 8.62 16.0199 8.07L17.2199 6.87C17.9599 6.13 18.1899 5.53 18.0799 5.27C17.9699 5.01 17.3999 4.75 16.3499 4.75H5.1499C4.7299 4.75 4.3999 4.41 4.3999 4C4.3999 3.59 4.7399 3.25 5.1499 3.25H16.3499C18.5399 3.25 19.2399 4.16 19.4699 4.7C19.6899 5.24 19.8399 6.38 18.2799 7.94L17.0799 9.14C16.8299 9.39 16.6899 9.74 16.6999 10.09C16.7099 10.39 16.8299 10.66 17.0399 10.85L18.2799 12.08C19.8099 13.61 19.6599 14.75 19.4399 15.3C19.2099 15.83 18.4999 16.75 16.3499 16.75Z" />
</svg>

<?xml version="1.0" encoding="UTF-8"?>
<svg width="24" height="24" viewBox="0 0 24 24" xmlns="http://www.w3.org/2000/svg">
 <path d="m5.1499 22.75c-0.41 0-0.75-0.34-0.75-0.75v-20c0-0.41 0.34-0.75 0.75-0.75s0.75 0.34 0.75 0.75v20c0 0.41-0.34 0.75-0.75 0.75z"/>
 <path d="m16.35 16.75h-11.2c-0.41 0-0.75-0.34-0.75-0.75s0.34-0.75 0.75-0.75h11.2c1.09 0 1.6-0.29 1.7-0.54s-0.05-0.81-0.83-1.58l-1.2-1.2c-0.49-0.43-0.79-1.08-0.82-1.8-0.03-0.76 0.27-1.51 0.82-2.06l1.2-1.2c0.74-0.74 0.97-1.34 0.86-1.6s-0.68-0.52-1.73-0.52h-11.2c-0.42 0-0.75-0.34-0.75-0.75s0.34-0.75 0.75-0.75h11.2c2.19 0 2.89 0.91 3.12 1.45 0.22 0.54 0.37 1.68-1.19 3.24l-1.2 1.2c-0.25 0.25-0.39 0.6-0.38 0.95 0.01 0.3 0.13 0.57 0.34 0.76l1.24 1.23c1.53 1.53 1.38 2.67 1.16 3.22-0.23 0.53-0.94 1.45-3.09 1.45z"/>
</svg>
